**harm	**harte	**timestamp	**phrase	**leadinstrument	**kern
*M4/4	*M4/4	*	*	*	*
*E:	*E:	*	*	*	*E:
1r;	N	0	.	r	1r;
=1	=1	=1	=1	=1	=1
*>A2_intro	*>A2_intro	*>A2_intro	*>A2_intro	*>A2_intro	*>A2_intro
1I	E:5	0.116	newline	r	1E 1g# 1b
=2	=2	=2	=2	=2	=2
1IVc	A:maj/5	1.974	.	r	1a 1cc# 1E
=3	=3	=3	=3	=3	=3
1I	E:5	3.831	.	r	1E 1g# 1b
=4	=4	=4	=4	=4	=4
1IVc	A:maj/5	5.688	.	r	1a 1cc# 1E
=5	=5	=5	=5	=5	=5
*>A_prechorus	*>A_prechorus	*>A_prechorus	*>A_prechorus	*>A_prechorus	*>A_prechorus
1I	E:maj	7.546	newline	synthesizer	1E 1g# 1b
=6	=6	=6	=6	=6	=6
2IVc	A:maj/5	9.411	.	synthesizer	2a 2cc# 2E
4IVc	A:sus4/5	10.344	.	synthesizer	4a 4cc# 4E
4IVc	A:maj/5	10.81	.	synthesizer	4a 4cc# 4E
=7	=7	=7	=7	=7	=7
1I	E:maj	11.276	.	synthesizer	1E 1g# 1b
=8	=8	=8	=8	=8	=8
2IVc	A:maj/5	13.141	.	synthesizer	2a 2cc# 2E
4IVc	A:sus4/5	14.074	.	synthesizer	4a 4cc# 4E
4IVc	A:maj/5	14.54	.	synthesizer	4a 4cc# 4E
=9	=9	=9	=9	=9	=9
*>B_verse	*>B_verse	*>B_verse	*>B_verse	*>B_verse	*>B_verse
1I	E:maj	15.007	newline	voice	1E 1g# 1b
=10	=10	=10	=10	=10	=10
1IVc	A:maj/5	16.857	.	voice	1a 1cc# 1E
=11	=11	=11	=11	=11	=11
2-VIIe	D:maj/2	18.708	.	voice	2D 2f# 2a
2IVc	A:maj/5	19.633	.	voice	2a 2cc# 2E
=12	=12	=12	=12	=12	=12
1I	E:maj	20.558	.	voice	1E 1g# 1b
=13	=13	=13	=13	=13	=13
1I	E:maj	22.409	newline	voice	1E 1g# 1b
=14	=14	=14	=14	=14	=14
1IVc	A:maj/5	24.274	.	voice	1a 1cc# 1E
=15	=15	=15	=15	=15	=15
1-VI	C:maj	26.14	.	voice	1C 1e 1g
=16	=16	=16	=16	=16	=16
1-VII	D:maj	28.006	.	voice	1D 1f# 1a
=17	=17	=17	=17	=17	=17
1-VI7	C:maj7	29.872	.	voice	1C 1e 1g 1b
=18	=18	=18	=18	=18	=18
1-VII	D:maj	31.738	.	voice	1D 1f# 1a
=19	=19	=19	=19	=19	=19
*>A_prechorus	*>A_prechorus	*>A_prechorus	*>A_prechorus	*>A_prechorus	*>A_prechorus
1I	E:maj	33.604	newline	synthesizer	1E 1g# 1b
=20	=20	=20	=20	=20	=20
2IVc	A:maj/5	35.45	.	synthesizer	2a 2cc# 2E
4IVc	A:sus4/5	36.373	.	synthesizer	4a 4cc# 4E
4IVc	A:maj/5	36.834	.	synthesizer	4a 4cc# 4E
=21	=21	=21	=21	=21	=21
1I	E:maj	37.296	.	synthesizer	1E 1g# 1b
=22	=22	=22	=22	=22	=22
2IVc	A:maj/5	39.142	.	synthesizer	2a 2cc# 2E
4IVc	A:sus4/5	40.064	.	synthesizer	4a 4cc# 4E
4IVc	A:maj/5	40.526	.	synthesizer	4a 4cc# 4E
=23	=23	=23	=23	=23	=23
*>B_verse	*>B_verse	*>B_verse	*>B_verse	*>B_verse	*>B_verse
1I	E:maj	40.987	newline	voice	1E 1g# 1b
=24	=24	=24	=24	=24	=24
1IVc	A:maj/5	42.856	.	voice	1a 1cc# 1E
=25	=25	=25	=25	=25	=25
2-VIIe	D:maj/2	44.725	.	voice	2D 2f# 2a
2IVc	A:maj/5	45.659	.	voice	2a 2cc# 2E
=26	=26	=26	=26	=26	=26
1I	E:maj	46.593	.	voice	1E 1g# 1b
=27	=27	=27	=27	=27	=27
1I	E:maj	48.462	newline	voice	1E 1g# 1b
=28	=28	=28	=28	=28	=28
1IVc	A:maj/5	50.326	.	voice	1a 1cc# 1E
=29	=29	=29	=29	=29	=29
1-VI	C:maj	52.19	.	voice	1C 1e 1g
=30	=30	=30	=30	=30	=30
1-VII	D:maj	54.054	.	voice	1D 1f# 1a
=31	=31	=31	=31	=31	=31
1-VI7	C:maj7	55.918	.	voice	1C 1e 1g 1b
=32	=32	=32	=32	=32	=32
1-VII	D:maj	57.782	.	voice	1D 1f# 1a
=33	=33	=33	=33	=33	=33
*>C_trans	*>C_trans	*>C_trans	*>C_trans	*>C_trans	*>C_trans
1r	N	59.646	newline	drums	1r
=34	=34	=34	=34	=34	=34
1r	N	61.508	.	drums	1r
=35	=35	=35	=35	=35	=35
*>D_chorus	*>D_chorus	*>D_chorus	*>D_chorus	*>D_chorus	*>D_chorus
1IVm7	A:7	63.37	newline	voice	1A 1cc# 1ee 1gg#
=36	=36	=36	=36	=36	=36
2-III	G:maj	65.187	.	voice	2G 2b 2dd
2V	B:maj	66.096	.	voice	2B 2dd# 2ff#
=37	=37	=37	=37	=37	=37
*>A_prechorus	*>A_prechorus	*>A_prechorus	*>A_prechorus	*>A_prechorus	*>A_prechorus
1I	E:maj	67.004	newline	synthesizer	1E 1g# 1b
=38	=38	=38	=38	=38	=38
2IVc	A:maj/5	68.867	.	synthesizer	2a 2cc# 2E
4IVc	A:sus4/5	69.798	.	synthesizer	4a 4cc# 4E
4IVc	A:maj/5	70.264	.	synthesizer	4a 4cc# 4E
=39	=39	=39	=39	=39	=39
1I	E:maj	70.73	.	synthesizer	1E 1g# 1b
=40	=40	=40	=40	=40	=40
2IVc	A:maj/5	72.593	.	synthesizer	2a 2cc# 2E
4IVc	A:sus4/5	73.524	.	synthesizer	4a 4cc# 4E
4IVc	A:maj/5	73.99	.	synthesizer	4a 4cc# 4E
=41	=41	=41	=41	=41	=41
*>E_bridge	*>E_bridge	*>E_bridge	*>E_bridge	*>E_bridge	*>E_bridge
1-III	G:maj	74.455	newline	voice	1G 1b 1dd
=42	=42	=42	=42	=42	=42
1-III	G:maj	76.32	.	voice	1G 1b 1dd
=43	=43	=43	=43	=43	=43
1IV	A:maj	78.184	.	voice	1A 1cc# 1ee
=44	=44	=44	=44	=44	=44
2IV	A:maj	80.048	.	voice	2A 2cc# 2ee
2ii	F#:min	80.981	.	voice	2F# 2a 2cc#
=45	=45	=45	=45	=45	=45
1-III	G:maj	81.913	newline	voice	1G 1b 1dd
=46	=46	=46	=46	=46	=46
1-III	G:maj	83.773	.	voice	1G 1b 1dd
=47	=47	=47	=47	=47	=47
1-VI	C:maj	85.633	.	voice	1C 1e 1g
=48	=48	=48	=48	=48	=48
1-IIIb	G:maj/3	87.493	.	voice	1g 1B 1dd
=49	=49	=49	=49	=49	=49
*>A3_prechorus	*>A3_prechorus	*>A3_prechorus	*>A3_prechorus	*>A3_prechorus	*>A3_prechorus
1IV	A:maj	89.353	newline	synthesizer	1A 1cc# 1ee
=50	=50	=50	=50	=50	=50
2-VIIc	D:maj/5	91.204	.	synthesizer	2d 2f# 2A
4-VII	D:sus4	92.129	.	synthesizer	4D 4f# 4a
4-VII	D:maj	92.592	.	synthesizer	4D 4f# 4a
=51	=51	=51	=51	=51	=51
1IV	A:maj	93.055	.	synthesizer	1A 1cc# 1ee
=52	=52	=52	=52	=52	=52
2-VIIc	D:maj/5	94.906	.	synthesizer	2d 2f# 2A
4-VII	D:sus4	95.831	.	synthesizer	4D 4f# 4a
4-VII	D:maj	96.294	.	synthesizer	4D 4f# 4a
=53	=53	=53	=53	=53	=53
1IV	A:maj	96.756	newline	synthesizer	1A 1cc# 1ee
=54	=54	=54	=54	=54	=54
2-VIIc	D:maj/5	98.615	.	synthesizer	2d 2f# 2A
4-VII	D:sus4	99.544	.	synthesizer	4D 4f# 4a
4-VII	D:maj	100.009	.	synthesizer	4D 4f# 4a
=55	=55	=55	=55	=55	=55
1IV	A:maj	100.473	.	synthesizer	1A 1cc# 1ee
=56	=56	=56	=56	=56	=56
2-VIIc	D:maj/5	102.332	.	synthesizer	2d 2f# 2A
4-VII	D:sus4	103.261	.	synthesizer	4D 4f# 4a
4-VII	D:maj	103.725	.	synthesizer	4D 4f# 4a
=57	=57	=57	=57	=57	=57
*>B_verse	*>B_verse	*>B_verse	*>B_verse	*>B_verse	*>B_verse
1I	E:maj	104.19	newline	voice	1E 1g# 1b
=58	=58	=58	=58	=58	=58
1IVc	A:maj/5	106.057	.	voice	1a 1cc# 1E
=59	=59	=59	=59	=59	=59
2-VIIe	D:maj/2	107.924	.	voice	2D 2f# 2a
2IVc	A:maj/5	108.858	.	voice	2a 2cc# 2E
=60	=60	=60	=60	=60	=60
1I	E:maj	109.791	.	voice	1E 1g# 1b
=61	=61	=61	=61	=61	=61
1I	E:maj	111.658	newline	voice	1E 1g# 1b
=62	=62	=62	=62	=62	=62
1IVc	A:maj/5	113.524	.	voice	1a 1cc# 1E
=63	=63	=63	=63	=63	=63
1-VI	C:maj	115.39	.	voice	1C 1e 1g
=64	=64	=64	=64	=64	=64
1-VII	D:maj	117.256	.	voice	1D 1f# 1a
=65	=65	=65	=65	=65	=65
1-VI7	C:maj7	119.122	.	voice	1C 1e 1g 1b
=66	=66	=66	=66	=66	=66
1-VII	D:maj	120.989	.	voice	1D 1f# 1a
=67	=67	=67	=67	=67	=67
*>C_trans	*>C_trans	*>C_trans	*>C_trans	*>C_trans	*>C_trans
1r	N	122.855	newline	drums	1r
=68	=68	=68	=68	=68	=68
1r	N	124.714	.	drums	1r
=69	=69	=69	=69	=69	=69
*>D_chorus	*>D_chorus	*>D_chorus	*>D_chorus	*>D_chorus	*>D_chorus
1IVm7	A:7	126.573	newline	voice	1A 1cc# 1ee 1gg#
=70	=70	=70	=70	=70	=70
2-III	G:maj	128.416	.	voice	2G 2b 2dd
2V	B:maj	129.337	.	voice	2B 2dd# 2ff#
=71	=71	=71	=71	=71	=71
*>A_prechorus	*>A_prechorus	*>A_prechorus	*>A_prechorus	*>A_prechorus	*>A_prechorus
1I	E:maj	130.258	newline	synthesizer	1E 1g# 1b
=72	=72	=72	=72	=72	=72
2IVc	A:maj/5	132.105	.	synthesizer	2a 2cc# 2E
4IVc	A:sus4/5	133.029	.	synthesizer	4a 4cc# 4E
4IVc	A:maj/5	133.491	.	synthesizer	4a 4cc# 4E
=73	=73	=73	=73	=73	=73
1I	E:maj	133.952	.	synthesizer	1E 1g# 1b
=74	=74	=74	=74	=74	=74
2IVc	A:maj/5	135.799	.	synthesizer	2a 2cc# 2E
4IVc	A:sus4/5	136.723	.	synthesizer	4a 4cc# 4E
4IVc	A:maj/5	137.185	.	synthesizer	4a 4cc# 4E
=75	=75	=75	=75	=75	=75
*>D_chorus	*>D_chorus	*>D_chorus	*>D_chorus	*>D_chorus	*>D_chorus
1IVm7	A:7	137.646	newline	voice	1A 1cc# 1ee 1gg#
=76	=76	=76	=76	=76	=76
2-III	G:maj	139.506	.	voice	2G 2b 2dd
2V	B:maj	140.435	.	voice	2B 2dd# 2ff#
=77	=77	=77	=77	=77	=77
*>A2_trans	*>A2_trans	*>A2_trans	*>A2_trans	*>A2_trans	*>A2_trans
1I	E:5	141.365	newline	voice	1E 1g# 1b
=78	=78	=78	=78	=78	=78
1IVc	A:maj/5	143.218	.	voice	1a 1cc# 1E
=79	=79	=79	=79	=79	=79
1I	E:5	145.071	.	voice	1E 1g# 1b
=80	=80	=80	=80	=80	=80
1IVc	A:maj/5	146.923	.	voice	1a 1cc# 1E
=81	=81	=81	=81	=81	=81
*>A_prechorus	*>A_prechorus	*>A_prechorus	*>A_prechorus	*>A_prechorus	*>A_prechorus
1I	E:maj	148.776	newline	synthesizer	1E 1g# 1b
=82	=82	=82	=82	=82	=82
2IVc	A:maj/5	150.646	.	synthesizer	2a 2cc# 2E
4IVc	A:sus4/5	151.581	.	synthesizer	4a 4cc# 4E
4IVc	A:maj/5	152.048	.	synthesizer	4a 4cc# 4E
=83	=83	=83	=83	=83	=83
1I	E:maj	152.516	.	synthesizer	1E 1g# 1b
=84	=84	=84	=84	=84	=84
2IVc	A:maj/5	154.386	.	synthesizer	2a 2cc# 2E
4IVc	A:sus4/5	155.321	.	synthesizer	4a 4cc# 4E
4IVc	A:maj/5	155.789	.	synthesizer	4a 4cc# 4E
=85	=85	=85	=85	=85	=85
*>D_chorus	*>D_chorus	*>D_chorus	*>D_chorus	*>D_chorus	*>D_chorus
1-VI	C:maj	156.256	newline	voice	1C 1e 1g
=86	=86	=86	=86	=86	=86
1-VII	D:maj	158.137	.	voice	1D 1f# 1a
=87	=87	=87	=87	=87	=87
*>A_prechorus	*>A_prechorus	*>A_prechorus	*>A_prechorus	*>A_prechorus	*>A_prechorus
1I	E:maj	160.019	newline	synthesizer	1E 1g# 1b
=88	=88	=88	=88	=88	=88
2IVc	A:maj/5	161.871	.	synthesizer	2a 2cc# 2E
4IVc	A:sus4/5	162.796	.	synthesizer	4a 4cc# 4E
4IVc	A:maj/5	163.259	.	synthesizer	4a 4cc# 4E
=89	=89	=89	=89	=89	=89
1I	E:maj	163.722	.	synthesizer	1E 1g# 1b
=90	=90	=90	=90	=90	=90
2IVc	A:maj/5	165.574	.	synthesizer	2a 2cc# 2E
4IVc	A:sus4/5	166.5	.	synthesizer	4a 4cc# 4E
4IVc	A:maj/5	166.963	.	synthesizer	4a 4cc# 4E
=91	=91	=91	=91	=91	=91
*>D_chorus	*>D_chorus	*>D_chorus	*>D_chorus	*>D_chorus	*>D_chorus
1-VI	C:maj	167.426	newline	voice	1C 1e 1g
=92	=92	=92	=92	=92	=92
1-VII	D:maj	169.267	.	voice	1D 1f# 1a
=93	=93	=93	=93	=93	=93
*>A_prechorus	*>A_prechorus	*>A_prechorus	*>A_prechorus	*>A_prechorus	*>A_prechorus
1I	E:maj	171.108	newline	synthesizer	1E 1g# 1b
=94	=94	=94	=94	=94	=94
2IVc	A:maj/5	172.975	.	synthesizer	2a 2cc# 2E
4IVc	A:sus4/5	173.909	.	synthesizer	4a 4cc# 4E
4IVc	A:maj/5	174.376	.	synthesizer	4a 4cc# 4E
=95	=95	=95	=95	=95	=95
1I	E:maj	174.843	.	synthesizer	1E 1g# 1b
=96	=96	=96	=96	=96	=96
2IVc	A:maj/5	176.71	.	synthesizer	2a 2cc# 2E
4IVc	A:sus4/5	177.644	.	synthesizer	4a 4cc# 4E
4IVc	A:maj/5	178.111	.	synthesizer	4a 4cc# 4E
=97	=97	=97	=97	=97	=97
*>D_chorus	*>D_chorus	*>D_chorus	*>D_chorus	*>D_chorus	*>D_chorus
1-VI	C:maj	178.577	newline	voice	1C 1e 1g
=98	=98	=98	=98	=98	=98
1-VII	D:maj	180.426	.	voice	1D 1f# 1a
=99	=99	=99	=99	=99	=99
*>A_fadeout	*>A_fadeout	*>A_fadeout	*>A_fadeout	*>A_fadeout	*>A_fadeout
1I	E:maj	182.275	newline	synthesizer	1E 1g# 1b
=100	=100	=100	=100	=100	=100
2IVc	A:maj/5	183.692	.	synthesizer	2a 2cc# 2E
4IVc	A:sus4/5	184.4	.	synthesizer	4a 4cc# 4E
4IVc	A:maj/5	184.755	.	synthesizer	4a 4cc# 4E
=101	=101	=101	=101	=101	=101
1I	E:maj	185.109	.	synthesizer	1E 1g# 1b
=102	=102	=102	=102	=102	=102
2IVc	A:maj/5	186.526	.	synthesizer	2a 2cc# 2E
4IVc	A:sus4/5	187.234	.	synthesizer	4a 4cc# 4E
4IVc	A:maj/5	187.588	.	synthesizer	4a 4cc# 4E
1r;	N	187.942	.	r	1r;
1r;	N	189.571	.	r	1r;
*-	*-	*-	*-	*-	*-
!!!OTL: Black Cars
!!!COC: Gino Vannelli
!!!BillboardChartDate: 1985/08/17
!!!BillboardPeak: 42
!!!BillboardWeeksOnChart: 16
!!!SampleTargetRank: 98
!!!SampleActualRank: 99
!!!SampleID#: 0068
!!!RDF**harmony: **recip + pitch class of root + harmonic quality
!!!RDF**harte: Chris Harte's syntax, used by MIREX
!!!RDF**phrase: newline = linebreak in original McGill transcription
!!!RDF**timestamp: McGill audio timestamp in seconds
!!!RDF**leadinstrument: original McGill primary instrumentation annotation
!!!RDT: 2017/01/12/
!!!ENC: Nathaniel Condit-Schultz
!!!EST: Awating manual error checking and editing.
